X:1
T: The Black Mill
T: Muileann Dubh
R:Reel
Q:232
K:Am
M:4/4
L:1/8
|:a|ed e^f g2fe|dG dG dG dg|ed e^f g2fe|dG dB A2Aa|
ed e^f g2fe|dG dG dG dg|ed e^f ga ge|dB gB A2Aa|
eA ed eA AB|dG dB dG Gg|eA ed eA AB|dG dB A2Aa|
eA ed eA AB|dG dB dG Gg|ed e^f gb ge|dg Bg A2A:|
